X:1
T:Title
%%score 1 { 2 | 3 }
L:1/8
Q:1/4=110
M:4/4
K:F
V:1 treble nm="Grand Piano, Soprano"
V:2 bass nm="Choir Pad, Blackfriars, 87.87 D"
V:3 bass 
V:1
 [CF]3 [CG] [FA]2 [CF]2 | [FA]2 [EB]2 [Fc]2 [FA]2 | [DG]3 [^FA] [GB]2 [DG]2 | [CF]2 [CE]2 [CF]4 | %4
w: By~William~James~Kirkpatrick,~1891 * * *||||
 [FA]3 [GB] [Ac]2 [FA]2 | [FB]2 [Fd]2 [Fc]2 [FA]2 | [CF]3 [EG] [FA]2 [FB]2 | [FA]2 [EG]2 [CF]4 | %8
w: ||||
 [Fc]3 [Fd] [Fc]2 [FA]2 | [Ff]2 [Fd]2 [Fc]2 [FA]2 | [EG]2 [Ec]2 [Ge]3 [Fd] | [Ec]2 [D=B]2 [Ec]4 | %12
w: ||||
 [FA]3 [GB] [Ac]2 [FA]2 | [FB]2 [Fd]2 [Fc]2 [FA]2 | [CF]3 [EG] [FA]2 [FB]2 | [FA]2 [EG]2 [CF]4- | %16
w: ||||
 [CF]4 z4 |] %17
w: |
V:2
 A,3 B, C2 A,2 | C2[K:treble] C2 C2 C2 | B,3 C D2[K:bass] B,2 | A,2 G,2 A,4 | %4
 C3[K:treble] C C2 C2 | D2 B,2 A,2 C2 | A,3 C C2 D2 | C2[K:bass] B,2 A,4 | %8
 A,3 B, A,2[K:treble] C2 | D2 B,2 A,2 C2 | C2[K:bass] G,2 C3 A, | G,2 G,2 G,2[K:treble] C2 | %12
 C3 C C2 C2 | D2[K:bass] B,2 A,2 C2 | A,3 C[K:treble] C2 D2 | C2 B,2 A,4- | A,4 z4 |] %17
V:3
 F,3 F, F,2 F,2 | F,2 G,2 A,2 F,2 | B,,3 A,, G,,2 B,,2 | C,2 C,2 F,4 | F,3 F, F,2 F,2 | %5
 F,2 F,2 F,2 F,2 | F,3 C, F,2 B,,2 | C,2 C,2 F,4 | F,3 F, F,2 F,2 | F,2 F,2 F,2 F,2 | %10
 C,2 C,2 C,3 F, | z4 C,4 | F,3 F, F,2 F,2 | F,2 F,2 F,2 F,2 | F,3 C, F,2 B,,2 | C,2 C,2 F,4- | %16
 F,4 z4 |] %17

